;FLAVOR:Marlin
;TIME:1262
;Filament used: 0.481417m
;Layer height: 0.12
;MINX:96.817
;MINY:107.818
;MINZ:0.25
;MAXX:127.182
;MAXY:127.184
;MAXZ:19.57
;Generated with Cura_SteamEngine 4.8.0
M140 S60
M105
M190 S60
M104 S240
M105
M109 S240
M82 ;absolute extrusion mode
G28 ;home
G92 E0 ;Reset Extruder
G1 Z4.0 F3000 ;Move Z Axis up
G92 E0 ;Reset Extruder
G1 X1.1 Y20 Z0.28 F5000.0 ;Move to start position
G1 X1.1 Y80.0 Z0.28 F1500.0 E10 ;Draw the first line
G1 X1.4 Y80.0 Z0.28 F5000.0 ;Move to side a little
G1 X1.4 Y20 Z0.28 F1500.0 E20 ;Draw the second line
G92 E0 ;Reset Extruder
G1 Z2.0 F3000 ;Move Z Axis up
G92 E0
G92 E0
G1 F2700 E-1.7
;LAYER_COUNT:165
;LAYER:0
M107
G0 F2100 X99.901 Y110.414 Z0.25
;TYPE:SKIRT
G1 F2700 E0
G1 F1500 X100.334 Y110.033 E0.03747
G1 X100.817 Y109.659 E0.07715
G1 X101.292 Y109.336 E0.11446
G1 X101.812 Y109.027 E0.15376
G1 X102.31 Y108.77 E0.19016
G1 X102.866 Y108.524 E0.22966
G1 X103.411 Y108.322 E0.26742
G1 X103.992 Y108.147 E0.30683
G1 X104.537 Y108.018 E0.34322
G1 X105.138 Y107.913 E0.38285
G1 X105.705 Y107.849 E0.41992
G1 X106.311 Y107.818 E0.45933
G1 X106.883 Y107.824 E0.49649
G1 X107.488 Y107.867 E0.53589
G1 X108.062 Y107.943 E0.57351
G1 X108.661 Y108.061 E0.61317
G1 X109.191 Y108.198 E0.64873
G1 X109.769 Y108.384 E0.68817
G1 X110.314 Y108.598 E0.72621
G1 X110.863 Y108.854 E0.76556
G1 X111.367 Y109.128 E0.80282
G1 X111.882 Y109.45 E0.84228
G1 X111.999 Y109.533 E0.8516
G1 X112.505 Y109.204 E0.89081
G1 X113.057 Y108.896 E0.93187
G1 X113.659 Y108.611 E0.97514
G1 X114.244 Y108.38 E1.01599
G1 X114.873 Y108.18 E1.05887
G1 X115.471 Y108.033 E1.09887
G1 X116.127 Y107.916 E1.14216
G1 X116.737 Y107.848 E1.18203
G1 X117.397 Y107.818 E1.22495
G1 X118.027 Y107.832 E1.26589
G1 X118.687 Y107.891 E1.30893
G1 X119.297 Y107.986 E1.34904
G1 X119.947 Y108.132 E1.39231
G1 X120.548 Y108.31 E1.43303
G1 X121.169 Y108.54 E1.47605
G1 X121.727 Y108.789 E1.51574
G1 X122.315 Y109.099 E1.55892
G1 X122.856 Y109.433 E1.60023
G1 X123.393 Y109.817 E1.64311
G1 X123.87 Y110.208 E1.68318
G1 X124.356 Y110.663 E1.72643
G1 X124.781 Y111.117 E1.76682
G1 X125.199 Y111.628 E1.80971
G1 X125.559 Y112.134 E1.85005
G1 X125.909 Y112.701 E1.89334
G1 X126.199 Y113.247 E1.9335
G1 X126.469 Y113.85 E1.97642
G1 X126.686 Y114.437 E2.01707
G1 X126.874 Y115.073 E2.06015
G1 X127.01 Y115.68 E2.10056
G1 X127.112 Y116.334 E2.14356
G1 X127.167 Y116.95 E2.18374
G1 X127.182 Y117.614 E2.22688
G1 X127.155 Y118.234 E2.2672
G1 X127.082 Y118.896 E2.31046
G1 X126.97 Y119.517 E2.35145
G1 X126.81 Y120.158 E2.39437
G1 X126.622 Y120.746 E2.43447
G1 X126.377 Y121.366 E2.47778
G1 X126.112 Y121.925 E2.51797
G1 X125.791 Y122.501 E2.5608
G1 X125.449 Y123.028 E2.60161
G1 X125.05 Y123.561 E2.64487
G1 X124.654 Y124.024 E2.68444
G1 X124.193 Y124.497 E2.72735
G1 X123.721 Y124.92 E2.76852
G1 X123.196 Y125.33 E2.81179
G1 X122.686 Y125.677 E2.85187
G1 X122.116 Y126.012 E2.89482
G1 X121.556 Y126.292 E2.93549
G1 X120.944 Y126.549 E2.97861
G1 X120.361 Y126.75 E3.01867
G1 X119.722 Y126.924 E3.06169
G1 X119.11 Y127.048 E3.10225
G1 X118.45 Y127.136 E3.14551
G1 X117.83 Y127.177 E3.18587
G1 X117.17 Y127.177 E3.22874
G1 X116.55 Y127.136 E3.26911
G1 X115.89 Y127.048 E3.31236
G1 X115.278 Y126.924 E3.35293
G1 X114.639 Y126.75 E3.39595
G1 X114.056 Y126.549 E3.43601
G1 X113.444 Y126.292 E3.47913
G1 X112.884 Y126.012 E3.5198
G1 X112.314 Y125.677 E3.56275
G1 X112.005 Y125.467 E3.58702
G1 X111.543 Y125.767 E3.6228
G1 X111.016 Y126.066 E3.66216
G1 X110.514 Y126.313 E3.69851
G1 X109.953 Y126.548 E3.73802
G1 X109.402 Y126.739 E3.7759
G1 X108.818 Y126.902 E3.81529
G1 X108.265 Y127.021 E3.85204
G1 X107.662 Y127.113 E3.89166
G1 X107.102 Y127.165 E3.9282
G1 X106.496 Y127.184 E3.96758
G1 X105.917 Y127.166 E4.00521
G1 X105.312 Y127.11 E4.04468
G1 X104.752 Y127.024 E4.08149
G1 X104.156 Y126.895 E4.1211
G1 X103.607 Y126.74 E4.15816
G1 X103.046 Y126.546 E4.19672
G1 X102.507 Y126.322 E4.23464
G1 X101.96 Y126.053 E4.27423
G1 X101.468 Y125.773 E4.31101
G1 X100.959 Y125.441 E4.35049
G1 X100.504 Y125.103 E4.38731
G1 X100.041 Y124.714 E4.42659
G1 X99.625 Y124.319 E4.46386
G1 X99.209 Y123.872 E4.50352
G1 X98.853 Y123.44 E4.53989
G1 X98.495 Y122.949 E4.57936
G1 X98.18 Y122.455 E4.61742
G1 X97.887 Y121.925 E4.65676
G1 X97.647 Y121.422 E4.69296
G1 X97.417 Y120.856 E4.73265
G1 X97.233 Y120.308 E4.7702
G1 X97.076 Y119.724 E4.80949
G1 X96.962 Y119.169 E4.8463
G1 X96.876 Y118.566 E4.88586
G1 X96.817 Y117.691 E4.94283
G1 X96.821 Y117.227 E4.97298
G1 X96.857 Y116.618 E5.01261
G1 X96.929 Y116.035 E5.05077
G1 X97.041 Y115.435 E5.09042
G1 X97.173 Y114.901 E5.12615
G1 X97.353 Y114.323 E5.16548
G1 X97.56 Y113.779 E5.20329
G1 X97.811 Y113.226 E5.24274
G1 X98.079 Y112.72 E5.27993
G1 X98.396 Y112.201 E5.31944
G1 X98.715 Y111.743 E5.3557
G1 X99.091 Y111.266 E5.39515
G1 X99.47 Y110.842 E5.4321
G1 X99.901 Y110.414 E5.47156
G0 F2100 X100.341 Y110.857
G1 F1500 X100.716 Y110.527 E5.50401
G1 X101.199 Y110.153 E5.54369
G1 X101.611 Y109.873 E5.57605
G1 X102.131 Y109.564 E5.61534
G1 X102.563 Y109.341 E5.64692
G1 X103.119 Y109.095 E5.68642
G1 X103.591 Y108.921 E5.7191
G1 X104.172 Y108.746 E5.75852
G1 X104.645 Y108.634 E5.79009
G1 X105.246 Y108.529 E5.82972
G1 X105.737 Y108.473 E5.86183
G1 X106.343 Y108.442 E5.90125
G1 X106.839 Y108.447 E5.93347
G1 X107.444 Y108.49 E5.97287
G1 X107.941 Y108.557 E6.00545
G1 X108.54 Y108.675 E6.04511
G1 X109 Y108.793 E6.07596
G1 X109.578 Y108.979 E6.1154
G1 X110.05 Y109.165 E6.14836
G1 X110.599 Y109.421 E6.18771
G1 X111.036 Y109.658 E6.22
G1 X111.551 Y109.98 E6.25946
G1 X112.002 Y110.306 E6.29561
G1 X112.29 Y110.09 E6.31899
G1 X112.846 Y109.728 E6.36209
G1 X113.324 Y109.461 E6.39766
G1 X113.926 Y109.176 E6.44093
G1 X114.434 Y108.976 E6.47639
G1 X115.063 Y108.776 E6.51927
G1 X115.581 Y108.648 E6.55393
G1 X116.237 Y108.531 E6.59722
G1 X116.766 Y108.472 E6.6318
G1 X117.426 Y108.442 E6.67471
G1 X117.972 Y108.454 E6.71019
G1 X118.632 Y108.513 E6.75324
G1 X119.16 Y108.596 E6.78796
G1 X119.81 Y108.742 E6.83123
G1 X120.331 Y108.896 E6.86653
G1 X120.952 Y109.126 E6.90955
G1 X121.436 Y109.342 E6.94398
G1 X122.024 Y109.652 E6.98716
G1 X122.492 Y109.941 E7.02289
G1 X123.029 Y110.325 E7.06577
G1 X123.443 Y110.664 E7.10053
G1 X123.929 Y111.119 E7.14378
G1 X124.297 Y111.512 E7.17876
G1 X124.715 Y112.023 E7.22164
G1 X125.027 Y112.462 E7.25663
G1 X125.377 Y113.029 E7.29991
G1 X125.628 Y113.503 E7.33476
G1 X125.898 Y114.106 E7.37768
G1 X126.086 Y114.614 E7.41286
G1 X126.274 Y115.25 E7.45595
G1 X126.392 Y115.776 E7.49096
G1 X126.494 Y116.43 E7.53396
G1 X126.542 Y116.964 E7.56879
G1 X126.557 Y117.628 E7.61194
G1 X126.534 Y118.165 E7.64685
G1 X126.461 Y118.827 E7.69012
G1 X126.364 Y119.366 E7.72569
G1 X126.204 Y120.007 E7.76861
G1 X126.041 Y120.516 E7.80333
G1 X125.796 Y121.136 E7.84664
G1 X125.566 Y121.621 E7.88151
G1 X125.245 Y122.197 E7.92434
G1 X124.949 Y122.654 E7.95971
G1 X124.55 Y123.187 E8.00297
G1 X124.207 Y123.588 E8.03724
G1 X123.746 Y124.061 E8.08015
G1 X123.337 Y124.427 E8.1158
G1 X122.812 Y124.837 E8.15908
G1 X122.37 Y125.138 E8.19382
G1 X121.8 Y125.473 E8.23676
G1 X121.314 Y125.716 E8.27206
G1 X120.702 Y125.973 E8.31518
G1 X120.196 Y126.147 E8.34994
G1 X119.557 Y126.321 E8.39296
G1 X119.027 Y126.428 E8.42809
G1 X118.367 Y126.516 E8.47134
G1 X117.83 Y126.552 E8.5063
G1 X117.17 Y126.552 E8.54918
G1 X116.633 Y126.516 E8.58414
G1 X115.973 Y126.428 E8.62739
G1 X115.443 Y126.321 E8.66252
G1 X114.804 Y126.147 E8.70554
G1 X114.298 Y125.973 E8.7403
G1 X113.686 Y125.716 E8.78342
G1 X113.2 Y125.473 E8.81872
G1 X112.63 Y125.138 E8.86167
G1 X112.188 Y124.837 E8.8964
G1 X112.003 Y124.692 E8.91167
G1 X111.235 Y125.224 E8.97236
G1 X110.708 Y125.523 E9.01173
G1 X110.273 Y125.736 E9.04319
G1 X109.712 Y125.971 E9.0827
G1 X109.234 Y126.137 E9.11557
G1 X108.65 Y126.3 E9.15496
G1 X108.171 Y126.404 E9.1868
G1 X107.568 Y126.496 E9.22642
G1 X107.082 Y126.54 E9.25813
G1 X106.476 Y126.559 E9.29751
G1 X105.975 Y126.544 E9.33007
G1 X105.37 Y126.488 E9.36954
G1 X104.884 Y126.413 E9.40149
G1 X104.288 Y126.284 E9.4411
G1 X103.677 Y126.103 E9.4825
G1 X103.674 Y126.089 E9.48343
G1 X103.25 Y125.956 E9.51229
G1 X102.783 Y125.761 E9.54517
G1 X102.236 Y125.492 E9.58477
G1 X101.809 Y125.249 E9.61668
G1 X101.3 Y124.917 E9.65616
G1 X100.906 Y124.625 E9.68802
G1 X100.443 Y124.236 E9.7273
G1 X100.083 Y123.893 E9.7596
G1 X99.667 Y123.446 E9.79927
G1 X99.358 Y123.072 E9.83078
G1 X99 Y122.581 E9.87026
G1 X98.727 Y122.153 E9.90323
G1 X98.434 Y121.623 E9.94257
G1 X98.226 Y121.187 E9.97396
G1 X97.996 Y120.621 E10.01364
G1 X97.836 Y120.146 E10.0462
G1 X97.679 Y119.562 E10.08549
G1 X97.581 Y119.081 E10.11738
G1 X97.495 Y118.478 E10.15694
G1 X97.441 Y117.666 E10.20981
G1 X97.445 Y117.264 E10.23593
G1 X97.481 Y116.655 E10.27556
G1 X97.543 Y116.149 E10.30867
G1 X97.655 Y115.549 E10.34832
G1 X97.77 Y115.087 E10.37925
G1 X97.95 Y114.509 E10.41858
G1 X98.129 Y114.038 E10.45131
G1 X98.38 Y113.485 E10.49076
G1 X98.613 Y113.046 E10.52304
G1 X98.93 Y112.527 E10.56255
G1 X99.206 Y112.13 E10.59396
G1 X99.582 Y111.653 E10.63342
G1 X99.91 Y111.285 E10.66544
G1 X100.341 Y110.857 E10.7049
G0 F2100 X100.781 Y111.3
G1 F1500 X101.099 Y111.022 E10.73234
G1 X101.582 Y110.648 E10.77202
G1 X101.931 Y110.41 E10.79946
G1 X102.451 Y110.101 E10.83875
G1 X102.816 Y109.913 E10.86543
G1 X103.372 Y109.667 E10.90492
G1 X103.771 Y109.519 E10.93257
G1 X104.352 Y109.344 E10.97198
G1 X104.752 Y109.249 E10.99869
G1 X105.353 Y109.144 E11.03832
G1 X105.769 Y109.097 E11.06552
G1 X106.375 Y109.066 E11.10494
G1 X106.795 Y109.071 E11.13222
G1 X107.4 Y109.114 E11.17162
G1 X107.82 Y109.17 E11.19915
G1 X108.419 Y109.288 E11.23881
G1 X108.808 Y109.388 E11.2649
G1 X109.386 Y109.574 E11.30434
G1 X109.786 Y109.731 E11.33226
G1 X110.335 Y109.987 E11.37161
G1 X110.705 Y110.188 E11.39896
G1 X111.22 Y110.51 E11.43842
G1 X111.552 Y110.746 E11.46488
G1 X112.006 Y111.111 E11.50272
G1 X112.631 Y110.614 E11.55459
G1 X113.187 Y110.252 E11.59769
G1 X113.592 Y110.026 E11.62782
G1 X114.194 Y109.741 E11.67109
G1 X114.623 Y109.572 E11.70104
G1 X115.252 Y109.372 E11.74392
G1 X115.69 Y109.263 E11.77324
G1 X116.346 Y109.146 E11.81653
G1 X116.794 Y109.097 E11.8458
G1 X117.454 Y109.067 E11.88872
G1 X117.916 Y109.077 E11.91874
G1 X118.576 Y109.136 E11.96179
G1 X119.023 Y109.206 E11.99118
G1 X119.673 Y109.352 E12.03445
G1 X120.114 Y109.482 E12.06432
G1 X120.735 Y109.712 E12.10734
G1 X121.144 Y109.895 E12.13645
G1 X121.732 Y110.205 E12.17963
G1 X122.129 Y110.449 E12.2099
G1 X122.666 Y110.833 E12.25278
G1 X123.016 Y111.12 E12.28219
G1 X123.502 Y111.575 E12.32543
G1 X123.813 Y111.908 E12.35503
G1 X124.231 Y112.419 E12.39792
G1 X124.496 Y112.79 E12.42754
G1 X124.846 Y113.357 E12.47082
G1 X125.058 Y113.758 E12.50029
G1 X125.328 Y114.361 E12.54321
G1 X125.487 Y114.791 E12.57299
G1 X125.675 Y115.427 E12.61607
G1 X125.775 Y115.872 E12.6457
G1 X125.877 Y116.526 E12.6887
G1 X125.917 Y116.978 E12.71818
G1 X125.932 Y117.642 E12.76132
G1 X125.912 Y118.097 E12.79091
G1 X125.839 Y118.759 E12.83417
G1 X125.758 Y119.215 E12.86426
G1 X125.598 Y119.856 E12.90718
G1 X125.459 Y120.286 E12.93653
G1 X125.214 Y120.906 E12.97984
G1 X125.02 Y121.317 E13.00936
G1 X124.699 Y121.893 E13.0522
G1 X124.448 Y122.279 E13.08211
G1 X124.049 Y122.812 E13.12536
G1 X123.759 Y123.152 E13.15439
G1 X123.298 Y123.625 E13.1973
G1 X122.952 Y123.935 E13.22747
G1 X122.427 Y124.345 E13.27075
G1 X122.053 Y124.599 E13.30012
G1 X121.483 Y124.934 E13.34307
G1 X121.072 Y125.14 E13.37293
G1 X120.46 Y125.397 E13.41605
G1 X120.032 Y125.544 E13.44545
G1 X119.393 Y125.718 E13.48847
G1 X118.944 Y125.809 E13.51823
G1 X118.284 Y125.897 E13.56148
G1 X117.83 Y125.927 E13.59104
G1 X117.17 Y125.927 E13.63391
G1 X116.716 Y125.897 E13.66347
G1 X116.056 Y125.809 E13.70672
G1 X115.607 Y125.718 E13.73649
G1 X114.968 Y125.544 E13.77951
G1 X114.54 Y125.397 E13.8089
G1 X113.928 Y125.14 E13.85202
G1 X113.517 Y124.934 E13.88189
G1 X112.947 Y124.599 E13.92484
G1 X112.573 Y124.345 E13.95421
G1 X112.048 Y123.935 E13.99748
G1 X112.001 Y123.892 E14.00162
G1 X111.77 Y124.086 E14.02121
G1 X111.28 Y124.45 E14.06087
G1 X110.927 Y124.68 E14.08824
G1 X110.4 Y124.979 E14.1276
G1 X110.031 Y125.16 E14.1543
G1 X109.47 Y125.395 E14.19381
G1 X109.066 Y125.535 E14.22158
G1 X108.482 Y125.698 E14.26097
G1 X108.077 Y125.786 E14.28789
G1 X107.474 Y125.878 E14.32752
G1 X107.063 Y125.915 E14.35433
G1 X106.457 Y125.934 E14.39371
G1 X106.032 Y125.921 E14.42133
G1 X105.427 Y125.865 E14.4608
G1 X105.017 Y125.802 E14.48775
G1 X104.421 Y125.673 E14.52736
G1 X103.883 Y125.513 E14.56382
G1 X103.059 Y125.2 E14.62108
G1 X102.512 Y124.931 E14.66068
G1 X102.151 Y124.726 E14.68765
G1 X101.642 Y124.394 E14.72713
G1 X101.308 Y124.146 E14.75415
G1 X100.845 Y123.757 E14.79344
G1 X100.54 Y123.467 E14.82077
G1 X100.124 Y123.02 E14.86044
G1 X99.863 Y122.703 E14.88712
G1 X99.505 Y122.212 E14.92659
G1 X99.274 Y121.85 E14.95449
G1 X98.981 Y121.32 E14.99383
G1 X98.805 Y120.951 E15.02038
G1 X98.575 Y120.385 E15.06007
G1 X98.44 Y119.984 E15.08756
G1 X98.283 Y119.4 E15.12684
G1 X98.199 Y118.992 E15.1539
G1 X98.113 Y118.389 E15.19347
G1 X98.066 Y117.641 E15.24216
G1 X98.069 Y117.301 E15.26425
G1 X98.105 Y116.692 E15.30388
G1 X98.157 Y116.264 E15.33188
G1 X98.269 Y115.664 E15.37153
G1 X98.366 Y115.273 E15.3977
G1 X98.546 Y114.695 E15.43703
G1 X98.698 Y114.296 E15.46477
G1 X98.949 Y113.743 E15.50422
G1 X99.146 Y113.372 E15.5315
G1 X99.463 Y112.853 E15.57101
G1 X99.697 Y112.517 E15.59761
G1 X100.073 Y112.04 E15.63706
G1 X100.35 Y111.728 E15.66417
G1 X100.781 Y111.3 E15.70363
G0 F2100 X101.222 Y111.744
G1 F1500 X101.482 Y111.516 E15.72609
G1 X101.965 Y111.142 E15.76577
G1 X102.25 Y110.948 E15.78817
G1 X102.77 Y110.639 E15.82746
G1 X103.069 Y110.485 E15.84931
G1 X103.625 Y110.239 E15.88881
G1 X103.952 Y110.118 E15.91146
G1 X104.533 Y109.943 E15.95087
G1 X104.86 Y109.865 E15.97271
G1 X105.461 Y109.76 E16.01235
G1 X105.801 Y109.722 E16.03457
G1 X106.407 Y109.691 E16.07399
G1 X106.75 Y109.694 E16.09627
G1 X107.355 Y109.737 E16.13567
G1 X107.7 Y109.783 E16.15828
G1 X108.299 Y109.901 E16.19794
G1 X108.617 Y109.983 E16.21927
G1 X109.195 Y110.169 E16.25872
G1 X109.522 Y110.298 E16.28155
G1 X110.071 Y110.554 E16.3209
G1 X110.373 Y110.718 E16.34323
G1 X110.888 Y111.04 E16.38268
G1 X111.16 Y111.233 E16.40435
G1 X111.635 Y111.615 E16.44395
G1 X111.999 Y111.96 E16.47653
G1 X112.172 Y111.791 E16.49224
G1 X112.676 Y111.359 E16.53536
G1 X112.972 Y111.138 E16.55936
G1 X113.528 Y110.776 E16.60245
G1 X113.859 Y110.591 E16.62709
G1 X114.461 Y110.306 E16.67036
G1 X114.813 Y110.167 E16.69494
G1 X115.442 Y109.967 E16.73782
G1 X115.8 Y109.879 E16.76176
G1 X116.456 Y109.762 E16.80505
G1 X116.822 Y109.721 E16.82898
G1 X117.482 Y109.691 E16.87189
G1 X117.86 Y109.699 E16.89646
G1 X118.52 Y109.758 E16.9395
G1 X118.886 Y109.815 E16.96356
G1 X119.536 Y109.961 E17.00684
G1 X119.897 Y110.068 E17.0313
G1 X120.518 Y110.298 E17.07432
G1 X120.853 Y110.448 E17.09816
G1 X121.441 Y110.758 E17.14134
G1 X121.765 Y110.958 E17.16608
G1 X122.302 Y111.342 E17.20896
G1 X122.589 Y111.576 E17.23302
G1 X123.075 Y112.031 E17.27627
G1 X123.329 Y112.304 E17.30049
G1 X123.747 Y112.815 E17.34338
G1 X123.964 Y113.118 E17.36759
G1 X124.314 Y113.685 E17.41087
G1 X124.487 Y114.013 E17.43496
G1 X124.757 Y114.616 E17.47788
G1 X124.888 Y114.969 E17.50234
G1 X125.076 Y115.605 E17.54542
G1 X125.157 Y115.969 E17.56965
G1 X125.259 Y116.623 E17.61264
G1 X125.292 Y116.992 E17.63671
G1 X125.307 Y117.656 E17.67986
G1 X125.291 Y118.028 E17.70404
G1 X125.218 Y118.69 E17.74731
G1 X125.151 Y119.063 E17.77193
G1 X124.991 Y119.704 E17.81484
G1 X124.878 Y120.057 E17.83892
